!!!OTL: MUTTER ACH MUTTER ES HUNGERT MICH
!!!ARE: Europa, Mitteleuropa, Deutschland, Schoenbeck a.d. Elbe
!!!SCT: E0189A
!!!YEM: Copyright 1995, estate of Helmut Schaffrath.
**kern
*ICvox
*Ivox
!! Mixed meters:  3/4; 4/4; 2/4
*M4/4
*k[b-]
*F:
=1
{4f
4a
4cc
=2
4ff
4ee
4dd
=3
4dd
4cc
4cc
=4
4a
2r}
=5
{4cc
4b-
4b-
=6
4g
4r
4g
=7
4dd
4cc
4cc
=8
4a
2r}
=9
{4a
4cc
4b-
4a
=10
*M2/4
4g
4r}
=11
*M4/4
{4a
4cc
4b-
4a
=12
*M3/4
4g
4f
4e}
=13
{4c
=14
*M4/4
4d
4d
4e
4e
=15
*M3/4
4f
4g
4a}
=16
{4a
=17
*M4/4
4a
4b-
4cc
8dd
8dd
=18
2cc
2b-
=19
1a}
==
!!!AGN: erzaehlendes Volks - Lied, Sage, Familien - Geschichte
!!!ONB: ESAC (Essen Associative Code) Database: ERK1
!!!AMT: irregular
!!!AIN: vox
!!!EED: Helmut Schaffrath
!!!EEV: 1.0
*-
